X:53
T:Sandansko Oro
S:Hamish Small 
R:Horo
P:ABABC
O:Macedonia
N:9  13
M:22/8
K:Bbm
P:A
    B2f2e2f3  e2 ed f2e3 dc cB\
|1  Bcd2dce2d dc cB c2B3 Bc de\
:|2 Bcd2dce2d dc cB c2B3 B2 B2|| \
P:B
|:  Bcd2ece2e dc cd dee2g ed cB|\
    Bcd2dce2d dc cB c2B3 B2B2 :|\
P:C
|:  def2fee2d de f=g agf2e de ed|\
   =def2fee2d de f=g fe ded dd d2:|
